.local/share/icons/Gruvbox-Plus-Dark/mimetypes/scalable/application-x-gnucash.svg

<svg width="256" height="256" viewBox="0 0 256 256" fill="none" xmlns="http://www.w3.org/2000/svg">
<g opacity="0.4" filter="url(#filter0_f)">
<path d="M55.0839 15.5636H155.608L216.009 75.7129L216.011 224.609C216.011 233.52 208.749 240.737 199.838 240.737H55.0838C46.1734 240.737 39 233.564 39 224.654V31.6474C39 22.737 46.1734 15.5636 55.0838 15.5636H55.0839Z" fill="#282828"/>
</g>
<path d="M55.0839 15H155.608L216.009 75.1493L216.011 224.045C216.011 232.956 208.749 240.174 199.838 240.174H55.0838C46.1734 240.174 39 233 39 224.09V31.0838C39 22.1734 46.1734 15 55.0838 15H55.0839Z" fill="#ebdbb2"/>
<path fill-rule="evenodd" clip-rule="evenodd" d="M155.609 22.9787H55.0839C50.58 22.9787 46.9787 26.5799 46.9787 31.0838V224.09C46.9787 228.594 50.5799 232.195 55.0838 232.195H199.838C204.371 232.195 208.032 228.521 208.032 224.046V75.1493L155.609 22.9787ZM155.608 15H55.0839C46.1735 15 39 22.1734 39 31.0838V224.09C39 233 46.1734 240.174 55.0838 240.174H199.838C208.749 240.174 216.011 232.956 216.011 224.045L216.009 75.1493L155.608 15Z" fill="url(#paint0_linear)"/>
<path d="M80 165.534L100 145.534V185.534H80V165.534ZM104 149.534L124 169.534V185.534H104V149.534ZM128 185.534V169.534L148 149.534V185.534H128ZM152 145.534L172 125.534V185.534H152V145.534ZM100 139.534L72 167.534V155.534L100 127.534L126 153.534L168 111.534L156 101.534H184V125.534L174 117.534L126 165.534L100 139.534Z" fill="url(#paint1_linear)"/>
<path d="M132.252 130H124.292V123.878C121.209 123.198 118.579 121.837 116.402 119.796C114.225 117.755 112.615 115.193 111.572 112.109L119.122 109.32C120.075 111.542 121.39 113.311 123.068 114.626C124.746 115.941 126.651 116.599 128.782 116.599C131.005 116.599 132.773 116.021 134.088 114.864C135.403 113.708 136.061 112.087 136.061 110C136.061 108.912 135.834 107.949 135.381 107.11C134.928 106.27 134.168 105.51 133.102 104.83C132.036 104.15 131.084 103.629 130.245 103.266C129.406 102.903 128.17 102.404 126.537 101.769C124.859 101.134 123.589 100.624 122.727 100.239C121.866 99.853 120.721 99.2407 119.293 98.402C117.864 97.5627 116.798 96.7123 116.095 95.851C115.392 94.989 114.757 93.855 114.19 92.449C113.623 91.043 113.34 89.4783 113.34 87.755C113.34 84.717 114.304 82.0753 116.231 79.83C118.158 77.5853 120.846 76.123 124.293 75.443V70H132.252V75.51C134.927 76.1453 137.115 77.3133 138.816 79.014C140.517 80.7147 141.73 82.812 142.456 85.306L135.109 87.756C133.794 84.49 131.299 82.857 127.626 82.857C125.766 82.857 124.315 83.288 123.272 84.15C122.229 85.012 121.707 86.2137 121.707 87.755C121.707 88.435 121.866 89.07 122.184 89.66C122.501 90.25 122.875 90.7377 123.306 91.123C123.737 91.5083 124.394 91.9277 125.279 92.381C126.163 92.8343 126.9 93.1743 127.489 93.401C128.079 93.6277 128.986 93.968 130.211 94.422C131.708 95.0113 132.819 95.4647 133.544 95.782C134.27 96.1 135.313 96.599 136.674 97.279C138.034 97.959 139.077 98.6507 139.803 99.354C140.528 100.057 141.299 100.918 142.116 101.939C142.932 102.959 143.521 104.138 143.884 105.477C144.247 106.814 144.429 108.299 144.429 109.932C144.429 113.787 143.295 116.939 141.027 119.388C138.76 121.837 135.835 123.379 132.252 124.014V130Z" fill="url(#paint2_linear)"/>
<path opacity="0.25" d="M155.608 17V61.2306C155.608 70.141 162.867 77.1605 171.777 77.1605L216.009 77.1493V75.1493L155.608 17Z" fill="#282828"/>
<path d="M155.608 15V59.2306C155.608 68.141 162.867 75.1605 171.777 75.1605L216.009 75.1493L155.608 15Z" fill="url(#paint3_linear)"/>
<defs>
<filter id="filter0_f" x="23.8778" y="0.441412" width="207.255" height="255.418" filterUnits="userSpaceOnUse" color-interpolation-filters="sRGB">
<feFlood flood-opacity="0" result="BackgroundImageFix"/>
<feBlend mode="normal" in="SourceGraphic" in2="BackgroundImageFix" result="shape"/>
<feGaussianBlur stdDeviation="7.5611" result="effect1_foregroundBlur"/>
</filter>
<linearGradient id="paint0_linear" x1="39" y1="15" x2="39" y2="240.174" gradientUnits="userSpaceOnUse">
<stop offset="1e-07" stop-color="#fabd2f"/>
<stop offset="1" stop-color="#d79921"/>
</linearGradient>
<linearGradient id="paint1_linear" x1="72" y1="101.534" x2="72" y2="185.534" gradientUnits="userSpaceOnUse">
<stop offset="1e-07" stop-color="#b16286"/>
<stop offset="1" stop-color="#8f3f71"/>
</linearGradient>
<linearGradient id="paint2_linear" x1="111.572" y1="70" x2="111.572" y2="130" gradientUnits="userSpaceOnUse">
<stop offset="1e-07" stop-color="#fabd2f"/>
<stop offset="0.5" stop-color="#fabd2f"/>
<stop offset="1" stop-color="#d79921"/>
</linearGradient>
<linearGradient id="paint3_linear" x1="155.608" y1="15" x2="155.608" y2="75.1605" gradientUnits="userSpaceOnUse">
<stop offset="1e-07" stop-color="#fabd2f"/>
<stop offset="1" stop-color="#d79921"/>
</linearGradient>
</defs>
</svg>

<svg width="256" height="256" fill="none" version="1.1" viewBox="0 0 256 256" xmlns="http://www.w3.org/2000/svg">
  <path d="m55.08 15h100.5l60.4 60.15 2e-3 148.9c0 8.911-7.262 16.13-16.17 16.13h-144.8c-8.91 0-16.08-7.174-16.08-16.08v-193c0-8.91 7.173-16.08 16.08-16.08h1e-4z" fill="#ebdbb2"/>
  <path d="m155.6 22.98h-100.5c-4.504 0-8.105 3.601-8.105 8.105v193c0 4.504 3.601 8.105 8.105 8.105h144.8c4.533 0 8.194-3.674 8.194-8.149v-148.9l-52.42-52.17zm-1e-3 -7.979h-100.5c-8.91 0-16.08 7.173-16.08 16.08v193c0 8.91 7.173 16.08 16.08 16.08h144.8c8.911 0 16.17-7.218 16.17-16.13l-2e-3 -148.9-60.4-60.15z" clip-rule="evenodd" fill="url(#paint0_linear)" fill-rule="evenodd"/>
  <path d="m80 165.5 20-20v40h-20v-20zm24-16 20 20v16h-20v-36zm24 36v-16l20-20v36h-20zm24-40 20-20v60h-20v-40zm-52-6-28 28v-12l28-28 26 26 42-42-12-10h28v24l-10-8-48 48-26-26z" fill="url(#paint1_linear)"/>
  <path d="m132.3 130h-7.96v-6.122c-3.083-0.68-5.713-2.041-7.89-4.082s-3.787-4.603-4.83-7.687l7.55-2.789c0.953 2.222 2.268 3.991 3.946 5.306s3.583 1.973 5.714 1.973c2.223 0 3.991-0.578 5.306-1.735 1.315-1.156 1.973-2.777 1.973-4.864 0-1.088-0.227-2.051-0.68-2.89-0.453-0.84-1.213-1.6-2.279-2.28s-2.018-1.201-2.857-1.564-2.075-0.862-3.708-1.497c-1.678-0.635-2.948-1.145-3.81-1.53-0.861-0.386-2.006-0.9983-3.434-1.837-1.429-0.8393-2.495-1.69-3.198-2.551-0.703-0.862-1.338-1.996-1.905-3.402s-0.85-2.971-0.85-4.694c0-3.038 0.964-5.68 2.891-7.925 1.927-2.245 4.615-3.707 8.062-4.387v-5.443h7.959v5.51c2.675 0.6353 4.863 1.803 6.564 3.504s2.914 3.798 3.64 6.292l-7.347 2.45c-1.315-3.266-3.81-4.899-7.483-4.899-1.86 0-3.311 0.431-4.354 1.293s-1.565 2.064-1.565 3.605c0 0.68 0.159 1.315 0.477 1.905 0.317 0.59 0.691 1.078 1.122 1.463s1.088 0.8047 1.973 1.258c0.884 0.4533 1.621 0.7933 2.21 1.02 0.59 0.2267 1.497 0.567 2.722 1.021 1.497 0.5893 2.608 1.043 3.333 1.36 0.726 0.318 1.769 0.817 3.13 1.497 1.36 0.68 2.403 1.372 3.129 2.075 0.725 0.703 1.496 1.564 2.313 2.585 0.816 1.02 1.405 2.199 1.768 3.538 0.363 1.337 0.545 2.822 0.545 4.455 0 3.855-1.134 7.007-3.402 9.456-2.267 2.449-5.192 3.991-8.775 4.626v5.986z" fill="url(#paint2_linear)"/>
  <path d="m155.6 17v44.23c0 8.91 7.259 15.93 16.17 15.93l44.23-0.0112v-2l-60.4-58.15z" fill="#282828" opacity=".25"/>
  <path d="m155.6 15v44.23c0 8.91 7.259 15.93 16.17 15.93l44.23-0.0112-60.4-60.15z" fill="url(#paint3_linear)"/>
  <defs>
    <linearGradient id="paint0_linear" x1="39" x2="39" y1="15" y2="240.2" gradientUnits="userSpaceOnUse">
      <stop stop-color="#fabd2f" offset="1e-7"/>
      <stop stop-color="#d79921" offset="1"/>
    </linearGradient>
    <linearGradient id="paint1_linear" x1="72" x2="72" y1="101.5" y2="185.5" gradientUnits="userSpaceOnUse">
      <stop stop-color="#b16286" offset="1e-7"/>
      <stop stop-color="#8f3f71" offset="1"/>
    </linearGradient>
    <linearGradient id="paint2_linear" x1="111.6" x2="111.6" y1="70" y2="130" gradientUnits="userSpaceOnUse">
      <stop stop-color="#fabd2f" offset="1e-7"/>
      <stop stop-color="#fabd2f" offset=".5"/>
      <stop stop-color="#d79921" offset="1"/>
    </linearGradient>
    <linearGradient id="paint3_linear" x1="155.6" x2="155.6" y1="15" y2="75.16" gradientUnits="userSpaceOnUse">
      <stop stop-color="#fabd2f" offset="1e-7"/>
      <stop stop-color="#d79921" offset="1"/>
    </linearGradient>
  </defs>
</svg>
